twotone/svg/notification_important.svg

<svg xmlns="http://www.w3.org/2000/svg" width="24" height="24"><g fill="currentColor"><path opacity=".3" d="M12 6c-2.76 0-5 2.24-5 5v7h10v-7c0-2.76-2.24-5-5-5zm1 10h-2v-2h2v2zm0-4h-2V8h2v4z"/><path d="M12 23c1.1 0 1.99-.89 1.99-1.99h-3.98c0 1.1.89 1.99 1.99 1.99zM19 17v-6c0-3.35-2.36-6.15-5.5-6.83V3c0-.83-.67-1.5-1.5-1.5s-1.5.67-1.5 1.5v1.17C7.36 4.85 5 7.65 5 11v6l-2 2v1h18v-1l-2-2zm-2 1H7v-7c0-2.76 2.24-5 5-5s5 2.24 5 5v7z"/><path d="M11 8h2v4h-2zM11 14h2v2h-2z"/></g></svg>

<?xml version="1.0" encoding="utf-8"?>
<!-- Generator: Adobe Illustrator 19.1.0, SVG Export Plug-In . SVG Version: 6.00 Build 0)  -->
<svg version="1.1" xmlns="http://www.w3.org/2000/svg" xmlns:xlink="http://www.w3.org/1999/xlink" x="0px" y="0px" width="24px"
	 height="24px" viewBox="0 0 24 24" enable-background="new 0 0 24 24" xml:space="preserve">
<g id="Bounding_Boxes" display="none">
	<g id="ui_x5F_spec_x5F_header_copy_3" display="inline">
	</g>
	<path display="inline" fill="none" d="M0,0h24v24H0V0z"/>
</g>
<g id="Duotone" fill="currentColor">
	<g id="ui_x5F_spec_x5F_header_copy_2">
	</g>
	<g>
		<path opacity="0.3" d="M12,6c-2.76,0-5,2.24-5,5v7h10v-7C17,8.24,14.76,6,12,6z M13,16h-2v-2h2V16z M13,12h-2V8h2V12z"/>
		<path d="M12,23c1.1,0,1.99-0.89,1.99-1.99h-3.98C10.01,22.11,10.9,23,12,23z"/>
		<path d="M19,17v-6c0-3.35-2.36-6.15-5.5-6.83V3c0-0.83-0.67-1.5-1.5-1.5S10.5,2.17,10.5,3v1.17C7.36,4.85,5,7.65,5,11v6l-2,2v1h18
			v-1L19,17z M17,18H7v-7c0-2.76,2.24-5,5-5s5,2.24,5,5V18z"/>
		<rect x="11" y="8" width="2" height="4"/>
		<rect x="11" y="14" width="2" height="2"/>
	</g>
</g>
</svg>
